svg/other/bomb_fill.svg

<?xml version="1.0" encoding="UTF-8"?>
<svg width="24px" height="24px" viewBox="0 0 24 24" version="1.1" xmlns="http://www.w3.org/2000/svg" xmlns:xlink="http://www.w3.org/1999/xlink">
    <title>bomb_fill</title>
    <g id="Icon" stroke="none" stroke-width="1" fill="none" fill-rule="evenodd">
        <g id="Other" transform="translate(-98.000000, -144.000000)" fill-rule="nonzero">
            <g id="bomb_fill" transform="translate(98.000000, 144.000000)">
                <path d="M24,0 L24,24 L0,24 L0,0 L24,0 Z M12.5935,23.2578 L12.5819,23.2595 L12.5109,23.295 L12.4919,23.2987 L12.4767,23.295 L12.4057,23.2595 C12.3958,23.2564 12.387,23.259 12.3821,23.2649 L12.378,23.2758 L12.3609,23.7031 L12.3659,23.7235 L12.3769,23.7357 L12.4805,23.8097 L12.4953,23.8136 L12.5071,23.8097 L12.6107,23.7357 L12.6233,23.7197 L12.6267,23.7031 L12.6096,23.2758 C12.6076,23.2657 12.601,23.2593 12.5935,23.2578 Z M12.8584,23.1453 L12.8445,23.1473 L12.6598,23.2397 L12.6499,23.2499 L12.6472,23.2611 L12.6651,23.6906 L12.6699,23.7034 L12.6784,23.7105 L12.8793,23.8032 C12.8914,23.8069 12.9022,23.803 12.9078,23.7952 L12.9118,23.7812 L12.8777,23.1665 C12.8753,23.1546 12.8674,23.147 12.8584,23.1453 Z M12.143,23.1473 C12.1332,23.1424 12.1222,23.1453 12.1156,23.1526 L12.1099,23.1665 L12.0758,23.7812 C12.0751,23.7927 12.0828,23.8019 12.0926,23.8046 L12.1083,23.8032 L12.3092,23.7105 L12.3186,23.7024 L12.3225,23.6906 L12.3404,23.2611 L12.3372,23.2485 L12.3278,23.2397 L12.143,23.1473 Z" id="MingCute"></path>
                <path d="M16.7501,1.27246 C17.3024,1.27246 17.7501,1.72018 17.7501,2.27246 L17.7501,3.27246 C17.7501,3.82475 17.3024,4.27246 16.7501,4.27246 C16.1978,4.27246 15.7501,3.82475 15.7501,3.27246 L15.7501,2.27246 C15.7501,1.72018 16.1978,1.27246 16.7501,1.27246 Z M12.8529,3.52246 C13.1291,3.04417 13.7407,2.88029 14.2189,3.15644 L15.085,3.65644 C15.5633,3.93258 15.7271,4.54417 15.451,5.02246 C15.1749,5.50075 14.5633,5.66463 14.085,5.38849 L13.2189,4.88849 C12.7407,4.61234 12.5768,4.00075 12.8529,3.52246 Z M20.2811,4.88849 C20.7594,4.61234 20.9233,4.00075 20.6472,3.52246 C20.371,3.04417 19.7594,2.88029 19.2811,3.15644 L18.4151,3.65644 C17.9368,3.93258 17.7729,4.54417 18.0491,5.02246 C18.3252,5.50075 18.9368,5.66463 19.4151,5.38849 L20.2811,4.88849 Z M15.4088,6.09562 C15.685,5.61733 16.2966,5.45346 16.7748,5.72961 C17.2189357,5.98602571 17.3919816,6.53168148 17.1933754,6.99126981 L17.1409,7.09563 L16.8661,7.57159 L17.7321,8.0716 C18.06762,8.265298 18.257664,8.6326438 18.2294049,9.01158799 L18.2118,9.13811 L18.0909,9.72874 C19.9655,12.1544 20.3649,15.5106 18.7675,18.2775 C16.625,21.9883 11.7872,23.1148 7.99957,20.928 C4.21195,18.7412 2.76863,13.9883 4.91106,10.2775 C6.46030606,7.59410606 9.42860549,6.26010716 12.377447,6.55655294 L12.6538,6.58913 L13.1045,6.18943 C13.39439,5.932408 13.802945,5.8682632 14.1535283,6.01489255 L14.268,6.0716 L15.134,6.57159 L15.4088,6.09562 Z M11.5024,9.53065913 C10.1367,9.53194 8.80446,10.2415 8.07026,11.5132 C7.79412,11.9915 7.95799,12.6031 8.43628,12.8792 C8.88041571,13.1356714 9.43948005,13.0126689 9.73817353,12.6108348 L9.80231,12.5132 C10.1371931,11.9331385 10.723616,11.5873112 11.347557,11.5370675 L11.5042,11.5307 C12.0565,11.5301 12.5038,11.082 12.5033008,10.5297 C12.5028,9.97745 12.0546,9.53015 11.5024,9.53065913 Z M19.4151,6.15644 L20.2811,6.65644 C20.7594,6.93258 20.9233,7.54417 20.6472,8.02246 C20.371,8.50075 19.7594,8.66463 19.2811,8.38849 L18.4151,7.88849 C17.9368,7.61234 17.7729,7.00075 18.0491,6.52246 C18.3252,6.04417 18.9368,5.88029 19.4151,6.15644 Z" id="形状" fill="#09244B"></path>
            </g>
        </g>
    </g>
</svg>

<svg xmlns="http://www.w3.org/2000/svg" width="24" height="24"><g fill="none" fill-rule="nonzero"><path d="M24 0v24H0V0h24ZM12.594 23.258l-.012.002-.071.035-.02.004-.014-.004-.071-.036c-.01-.003-.019 0-.024.006l-.004.01-.017.428.005.02.01.013.104.074.015.004.012-.004.104-.074.012-.016.004-.017-.017-.427c-.002-.01-.009-.017-.016-.018Zm.264-.113-.014.002-.184.093-.01.01-.003.011.018.43.005.012.008.008.201.092c.012.004.023 0 .029-.008l.004-.014-.034-.614c-.003-.012-.01-.02-.02-.022Zm-.715.002a.023.023 0 0 0-.027.006l-.006.014-.034.614c0 .012.007.02.017.024l.015-.002.201-.093.01-.008.003-.011.018-.43-.003-.012-.01-.01-.184-.092Z"/><path fill="#09244B" d="M16.75 1.272a1 1 0 0 1 1 1v1a1 1 0 1 1-2 0v-1a1 1 0 0 1 1-1Zm-3.897 2.25a1 1 0 0 1 1.366-.366l.866.5a1 1 0 0 1-1 1.732l-.866-.5a1 1 0 0 1-.366-1.366Zm7.428 1.366a1 1 0 1 0-1-1.732l-.866.5a1 1 0 1 0 1 1.732l.866-.5ZM15.41 6.096a1 1 0 0 1 1.784.895l-.052.105-.275.476.866.5a1 1 0 0 1 .497.94l-.017.126-.121.59c1.874 2.426 2.274 5.783.676 8.55-2.142 3.71-6.98 4.837-10.767 2.65-3.788-2.187-5.231-6.94-3.089-10.65 1.55-2.684 4.518-4.018 7.466-3.721l.277.032.45-.4a1 1 0 0 1 1.05-.174l.114.057.866.5.275-.476ZM11.502 9.53a3.963 3.963 0 0 0-3.432 1.982 1 1 0 0 0 1.668 1.098l.064-.098c.335-.58.922-.926 1.546-.976l.156-.006a1 1 0 0 0-.002-2Zm7.913-3.375.866.5a1 1 0 1 1-1 1.732l-.866-.5a1 1 0 1 1 1-1.732Z"/></g></svg>
